X:369
T: LOOT ONS NOCH ENS DRENKEN
N: E0996
O: Europa, Mitteleuropa, Deutschland, Niederrhein; Westfalen
R: Tanz - Lied, Reigen, Kirmes
M: 2/4
L: 1/8
K: F
 | FGAB | c2f2 |
ddfd | dcc2 |
cBBB | A2c2 |
GFGA | F2z2

